dist/img/icon_1.svg

<svg width="82" height="88" viewBox="0 0 82 88" fill="none" xmlns="http://www.w3.org/2000/svg">
<ellipse cx="34.5" cy="44" rx="34.5" ry="34" fill="#E9F5E1"/>
<path d="M48.8406 68.0201H54.3422C56.3595 68.0201 58.01 66.3696 58.01 64.3523C58.01 62.335 56.3595 60.6845 54.3422 60.6845H45.1728" stroke="#35A535" stroke-width="3" stroke-linejoin="round"/>
<path d="M48.8406 57.0167V79.0234" stroke="#35A535" stroke-width="3" stroke-linejoin="round"/>
<path d="M54.3422 60.6845V57.0167" stroke="#35A535" stroke-width="3" stroke-linejoin="round"/>
<path d="M54.3422 77.1895V79.0234" stroke="#35A535" stroke-width="3" stroke-linejoin="round"/>
<path d="M48.8406 68.0201H56.1761C58.1934 68.0201 59.8439 69.6706 59.8439 71.6878C59.8439 73.7051 58.1934 75.3556 56.1761 75.3556H45.1728" stroke="#35A535" stroke-width="3" stroke-linejoin="round"/>
<path d="M52.5083 86.3589C62.6366 86.3589 70.8472 78.1483 70.8472 68.02C70.8472 57.8917 62.6366 49.6811 52.5083 49.6811C42.38 49.6811 34.1694 57.8917 34.1694 68.02C34.1694 78.1483 42.38 86.3589 52.5083 86.3589Z" stroke="url(#paint0_linear_2_251)" stroke-width="3" stroke-linejoin="round"/>
<path d="M56.1578 18.505C54.9107 18.505 53.682 18.3583 52.5083 18.0832C52.5083 18.2299 52.49 18.3583 52.49 18.505V44.1795" stroke="#032305" stroke-width="3" stroke-linejoin="round"/>
<path d="M72.6444 2.42178C71.4708 2.16504 70.2604 1.99997 68.995 1.99997C60.0273 1.99997 52.7284 9.17046 52.5083 18.0832C53.682 18.3399 54.8924 18.505 56.1578 18.505C65.1438 18.505 72.4244 11.3345 72.6444 2.42178Z" stroke="#032305" stroke-width="3" stroke-linejoin="round"/>
<path d="M63.4933 38.6779C62.2463 38.6779 61.0176 38.5312 59.8439 38.2561C59.8439 38.4028 59.8256 38.5312 59.8256 38.6779V44.1796" stroke="#032305" stroke-width="3" stroke-linejoin="round"/>
<path d="M79.98 22.5946C78.8063 22.3379 77.5959 22.1728 76.3306 22.1728C67.3628 22.1728 60.064 29.3433 59.8439 38.256C61.0176 38.5128 62.228 38.6778 63.4933 38.6778C72.4794 38.6778 79.7599 31.5073 79.98 22.5946Z" stroke="#032305" stroke-width="3" stroke-linejoin="round"/>
<path d="M41.4867 27.6745C42.7337 27.6745 43.9624 27.5278 45.1361 27.2527C45.1361 27.3994 45.1544 27.5278 45.1544 27.6745V44.1795" stroke="#032305" stroke-width="3" stroke-linejoin="round"/>
<path d="M25 11.5912C26.1737 11.3345 27.3841 11.1694 28.6494 11.1694C37.6172 11.1694 44.916 18.3399 45.1361 27.2526C43.9624 27.5094 42.7521 27.6744 41.4867 27.6744C32.5189 27.6744 25.2201 20.504 25 11.5912Z" stroke="#032305" stroke-width="3" stroke-linejoin="round"/>
<defs>
<linearGradient id="paint0_linear_2_251" x1="30.0637" y1="44.1239" x2="72.5973" y2="43.3069" gradientUnits="userSpaceOnUse">
<stop stop-color="#6ABD36"/>
<stop offset="1" stop-color="#058E34"/>
</linearGradient>
</defs>
</svg>

<svg width="82" height="88" fill="none" xmlns="http://www.w3.org/2000/svg"><ellipse cx="34.5" cy="44" rx="34.5" ry="34" fill="#E9F5E1"/><path d="M48.84 68.02h5.502a3.679 3.679 0 003.668-3.668 3.679 3.679 0 00-3.668-3.668h-9.17m3.668-3.667v22.006m5.502-18.339v-3.667m0 20.173v1.833M48.84 68.02h7.336a3.679 3.679 0 013.668 3.668 3.679 3.679 0 01-3.668 3.668H45.173" stroke="#35A535" stroke-width="3" stroke-linejoin="round"/><path d="M52.508 86.359c10.129 0 18.34-8.21 18.34-18.339 0-10.128-8.211-18.339-18.34-18.339-10.128 0-18.339 8.21-18.339 18.339 0 10.128 8.211 18.339 18.34 18.339z" stroke="url(#paint0_linear_2_251)" stroke-width="3" stroke-linejoin="round"/><path d="M56.158 18.505c-1.247 0-2.476-.147-3.65-.422 0 .147-.018.275-.018.422v25.674" stroke="#032305" stroke-width="3" stroke-linejoin="round"/><path d="M72.644 2.422C71.471 2.165 70.26 2 68.995 2c-8.968 0-16.267 7.17-16.487 16.083 1.174.257 2.384.422 3.65.422 8.986 0 16.266-7.17 16.486-16.083zm-9.151 36.256c-1.247 0-2.475-.147-3.65-.422 0 .147-.017.275-.017.422v5.502" stroke="#032305" stroke-width="3" stroke-linejoin="round"/><path d="M79.98 22.595c-1.174-.257-2.384-.422-3.65-.422-8.967 0-16.266 7.17-16.486 16.083 1.174.257 2.384.422 3.65.422 8.985 0 16.266-7.17 16.486-16.083zm-38.493 5.079a16.04 16.04 0 003.65-.421c0 .146.017.275.017.421V44.18" stroke="#032305" stroke-width="3" stroke-linejoin="round"/><path d="M25 11.591c1.174-.256 2.384-.422 3.65-.422 8.967 0 16.266 7.17 16.486 16.084-1.174.256-2.384.421-3.65.421-8.967 0-16.266-7.17-16.486-16.083z" stroke="#032305" stroke-width="3" stroke-linejoin="round"/><defs><linearGradient id="paint0_linear_2_251" x1="30.064" y1="44.124" x2="72.597" y2="43.307" gradientUnits="userSpaceOnUse"><stop stop-color="#6ABD36"/><stop offset="1" stop-color="#058E34"/></linearGradient></defs></svg>
